images_elementary_svg/cmd/sc_dataarearefresh.svg

<svg viewBox="0 0 16 16" xmlns="http://www.w3.org/2000/svg" xmlns:xlink="http://www.w3.org/1999/xlink"><linearGradient id="a" gradientTransform="matrix(.59436 0 0 .5999 -19.265 -.033)" gradientUnits="userSpaceOnUse" x1="25.132" x2="25.132" y1="15.5" y2="48.396"><stop offset="0" stop-color="#fafafa"/><stop offset="1" stop-color="#e2e1de"/></linearGradient><linearGradient id="b" gradientTransform="matrix(.98704 0 0 .88413 .093 -1.35)" gradientUnits="userSpaceOnUse" x1="7" x2="7" y1="2" y2="9"><stop offset="0" stop-color="#fff"/><stop offset=".5" stop-color="#fff" stop-opacity=".235"/><stop offset=".951" stop-color="#fff" stop-opacity=".157"/><stop offset="1" stop-color="#fff" stop-opacity=".392"/></linearGradient><linearGradient id="c" gradientTransform="matrix(.94103 0 0 1.027 .46 -2.56)" gradientUnits="userSpaceOnUse" x1="7" x2="7" y1="-4" y2="17"><stop offset="0" stop-color="#cdf87e"/><stop offset=".262" stop-color="#a2e34f"/><stop offset=".661" stop-color="#68b723"/><stop offset="1" stop-color="#1d7e0d"/></linearGradient><linearGradient id="d" gradientTransform="matrix(.51817 0 0 .361 -1079.953 -1160.217)" gradientUnits="userSpaceOnUse" x1="2100.578" x2="2100.578" y1="3215.147" y2="3256.79"><stop offset="0" stop-color="#64baff"/><stop offset="1" stop-color="#3689e6"/></linearGradient><linearGradient id="e" gradientTransform="matrix(.29115 0 0 .32302 2.122 -5.26)" gradientUnits="userSpaceOnUse" x1="29.556" x2="26.135" y1="28.447" y2="34.107"><stop offset="0" stop-color="#fff"/><stop offset=".004" stop-color="#fff" stop-opacity=".235"/><stop offset=".539" stop-color="#fff" stop-opacity=".157"/><stop offset="1" stop-color="#fff" stop-opacity=".392"/></linearGradient><linearGradient id="f" gradientTransform="matrix(.49412 0 0 .49434 11.832 -6.382)" gradientUnits="userSpaceOnUse" x1="-3.707" x2="-3.707" y1="39.159" y2="23.025"><stop offset="0" stop-color="#fff"/><stop offset=".373" stop-color="#fff" stop-opacity=".235"/><stop offset=".75" stop-color="#fff" stop-opacity=".157"/><stop offset="1" stop-color="#fff" stop-opacity=".392"/></linearGradient><linearGradient id="g" gradientUnits="userSpaceOnUse" x1="8.848872" x2="8.848872" y1="3.921802" y2="14.075938"><stop offset="0" stop-color="#fff"/><stop offset=".5" stop-color="#fff" stop-opacity=".235"/><stop offset=".75" stop-color="#fff" stop-opacity=".157"/><stop offset="1" stop-color="#fff" stop-opacity=".392"/></linearGradient><g transform="translate(0 2)"><rect fill="url(#a)" height="10" rx=".424" ry=".491" width="5" x="1" y="3"/><path d="m.498-1.998c-.276 0-.5.224-.5.5l.002 14.998c0 .276.224.5.5.5h5.5v-.998h-5.002l-.002-10.002h4.004v2h-4v1h4v3h-4v1h4v3h1v-11h-.002v-2.998h-1v2.998h-4.002v-3h14.004v3h.998v-3.498c0-.276-.224-.5-.5-.5h-15zm9.5 1v2.998h1v-2.998z" fill="#030303" opacity=".32"/></g><path d="m.5 0a.5.5 0 0 0 -.5.5v3.5h.998v-3.002h14.004v3.002h.998v-3.5a.5.5 0 0 0 -.5-.5zm4.5 1v2h-4v1h14v-1h-4v-2h-1v2h-4v-2z" fill="#126400" opacity=".4"/><path d="m.5.52h15.02v3.082h-15.02z" fill="url(#c)"/><path d="m.5.52v3.082l.51-.008-.01-2.594h14v2.602h.518v-3.08z" fill="url(#b)"/><path d="m5 .494h1v3.074h-1zm5 0h1v3.103h-1z" fill="#126400" opacity=".4"/><g transform="matrix(.63 0 0 .63 6.358 5.714)"><path d="m8.5.5v2.02a6.5 6.5 0 0 0 -.5-.02 6.5 6.5 0 0 0 -6.5 6.5 6.5 6.5 0 0 0 6.5 6.5 6.5 6.5 0 0 0 6.48-6h-3.02a3.5 3.5 0 0 1 -3.46 3 3.5 3.5 0 0 1 -3.5-3.5 3.5 3.5 0 0 1 3.5-3.5 3.5 3.5 0 0 1 .5.04v1.96l5-3.5z" fill="url(#d)" opacity=".99"/><g fill="none"><g stroke-width="1.584"><path d="m8.5.5v2.02a6.5 6.5 0 0 0 -.5-.02 6.5 6.5 0 0 0 -6.5 6.5 6.5 6.5 0 0 0 6.5 6.5 6.5 6.5 0 0 0 6.48-6h-3.02a3.5 3.5 0 0 1 -3.46 3 3.5 3.5 0 0 1 -3.5-3.5 3.5 3.5 0 0 1 3.5-3.5 3.5 3.5 0 0 1 .5.04v1.96l5-3.5z" opacity=".5" stroke="#002e99" stroke-linecap="round" stroke-linejoin="round"/><path d="m9.496 5.578v-3.13l2.222 1.56z" opacity=".5" stroke="url(#e)"/><path d="m12.32 10.176a4.49 4.49 0 0 1 -5.392 3.202 4.49 4.49 0 0 1 -3.33-5.315 4.49 4.49 0 0 1 5.232-3.458" opacity=".5" stroke="url(#f)"/></g><ellipse cx="8" cy="9.212" opacity=".99" rx="4" ry="2.472"/><path d="m13.386 10.154a5.506 5.504 0 0 1 -6.446 4.246 5.506 5.504 0 0 1 -4.357-6.372 5.506 5.504 0 0 1 6.3-4.46" opacity=".5" stroke="url(#g)" stroke-width="1.584"/></g></g></svg>

<svg xmlns="http://www.w3.org/2000/svg" xmlns:xlink="http://www.w3.org/1999/xlink" viewBox="0 0 16 16"><defs><linearGradient gradientTransform="matrix(1.38317 0 0 1.41442 -36.243 -3.873)" id="b" gradientUnits="userSpaceOnUse" x1="8.295" x2="8.295" y1="-4.284" y2="16.85"><stop offset="0" stop-color="#cdf87e"/><stop offset=".262" stop-color="#a2e34f"/><stop offset=".661" stop-color="#68b723"/><stop offset="1" stop-color="#1d7e0d"/></linearGradient><linearGradient id="g" gradientTransform="matrix(.59436 0 0 .5999 -19.265 -.033)" gradientUnits="userSpaceOnUse" x1="25.132" x2="25.132" y1="15.5" y2="48.396"><stop offset="0" stop-color="#fafafa"/><stop offset="1" stop-color="#e2e1de"/></linearGradient><linearGradient id="a"><stop offset="0" stop-color="#fff"/><stop offset=".5" stop-color="#fff" stop-opacity=".235"/><stop offset=".951" stop-color="#fff" stop-opacity=".157"/><stop offset="1" stop-color="#fff" stop-opacity=".392"/></linearGradient><linearGradient xlink:href="#a" id="i" x1="7" y1="2" x2="7" y2="9" gradientUnits="userSpaceOnUse" gradientTransform="matrix(.98704 0 0 .88413 .093 -1.35)"/><linearGradient xlink:href="#b" id="h" x1="7" y1="-4" x2="7" y2="17" gradientUnits="userSpaceOnUse" gradientTransform="matrix(.94103 0 0 1.027 .46 -2.56)"/><linearGradient y2="3256.79" x2="2100.578" y1="3215.147" x1="2100.578" gradientTransform="matrix(.51817 0 0 .361 -1079.953 -1160.217)" gradientUnits="userSpaceOnUse" id="j" xlink:href="#c"/><linearGradient id="c"><stop offset="0" stop-color="#64baff"/><stop offset="1" stop-color="#3689e6"/></linearGradient><linearGradient xlink:href="#d" id="k" gradientUnits="userSpaceOnUse" gradientTransform="matrix(.29115 0 0 .32302 2.122 -5.26)" x1="29.556" y1="28.447" x2="26.135" y2="34.107"/><linearGradient id="d"><stop offset="0" stop-color="#fff"/><stop offset=".004" stop-color="#fff" stop-opacity=".235"/><stop offset=".539" stop-color="#fff" stop-opacity=".157"/><stop offset="1" stop-color="#fff" stop-opacity=".392"/></linearGradient><linearGradient y2="23.025" x2="-3.707" y1="39.159" x1="-3.707" gradientTransform="matrix(.49412 0 0 .49434 11.832 -6.382)" gradientUnits="userSpaceOnUse" id="l" xlink:href="#e"/><linearGradient id="e"><stop offset="0" stop-color="#fff"/><stop offset=".373" stop-color="#fff" stop-opacity=".235"/><stop offset=".75" stop-color="#fff" stop-opacity=".157"/><stop offset="1" stop-color="#fff" stop-opacity=".392"/></linearGradient><linearGradient xlink:href="#f" id="m" gradientUnits="userSpaceOnUse" gradientTransform="matrix(.606 0 0 .606 12.72 -9.875)" x1="-6.388" y1="22.767" x2="-6.388" y2="39.523"/><linearGradient id="f"><stop offset="0" stop-color="#fff"/><stop offset=".5" stop-color="#fff" stop-opacity=".235"/><stop offset=".75" stop-color="#fff" stop-opacity=".157"/><stop offset="1" stop-color="#fff" stop-opacity=".392"/></linearGradient></defs><g transform="translate(0 2)"><rect height="10" rx=".424" ry=".491" width="5" x="1" y="3" fill="url(#g)"/><path d="M.498-1.998c-.276 0-.5.224-.5.5L0 13.5c0 .276.224.5.5.5H6v-.998H.998L.996 3H5v2H1v1h4v3H1v1h4v3h1V2h-.002V-.998h-1V2H.996v-3H15v3h.998v-3.498c0-.276-.224-.5-.5-.5h-15zm9.5 1V2h1V-.998h-1z" opacity=".32" fill="#030303"/></g><path d="M.5 0a.5.5 0 0 0-.5.5V4h.998V.998h14.004V4H16V.5a.5.5 0 0 0-.5-.5zM5 1v2H1v1h14V3h-4V1h-1v2H6V1z" opacity=".4" fill="#126400"/><path d="M.5.52H15.52v3.082H.5z" fill="url(#h)"/><path d="M.5.52v3.082l.51-.008L1 1h14v2.602h.518V.522z" fill="url(#i)"/><path opacity=".4" fill="#126400" d="M5 .494h1v3.074H5zM10 .494h1v3.103h-1z"/><g transform="matrix(.63 0 0 .63 6.358 5.714)"><path d="M8.5.5v2.02A6.5 6.5 0 0 0 8 2.5 6.5 6.5 0 0 0 1.5 9 6.5 6.5 0 0 0 8 15.5a6.5 6.5 0 0 0 6.48-6h-3.02a3.5 3.5 0 0 1-3.46 3A3.5 3.5 0 0 1 4.5 9 3.5 3.5 0 0 1 8 5.5a3.5 3.5 0 0 1 .5.04V7.5l5-3.5z" opacity=".99" fill="url(#j)"/><path d="M8.5.5v2.02A6.5 6.5 0 0 0 8 2.5 6.5 6.5 0 0 0 1.5 9 6.5 6.5 0 0 0 8 15.5a6.5 6.5 0 0 0 6.48-6h-3.02a3.5 3.5 0 0 1-3.46 3A3.5 3.5 0 0 1 4.5 9 3.5 3.5 0 0 1 8 5.5a3.5 3.5 0 0 1 .5.04V7.5l5-3.5z" opacity=".5" fill="none" stroke="#002e99" stroke-width="1.584" stroke-linecap="round" stroke-linejoin="round"/><path overflow="visible" d="M9.496 5.578v-3.13l2.222 1.56z" style="isolation:auto;mix-blend-mode:normal" color="#000" opacity=".5" solid-color="#000000" fill="none" stroke="url(#k)" stroke-width="1.584"/><path d="M12.32 10.176a4.49 4.49 0 0 1-5.392 3.202 4.49 4.49 0 0 1-3.33-5.315A4.49 4.49 0 0 1 8.83 4.605" opacity=".5" fill="none" stroke="url(#l)" stroke-width="1.584"/><ellipse cx="8" cy="9.212" rx="4" ry="2.472" opacity=".99" fill="none"/><path d="M13.386 10.154A5.506 5.504 0 0 1 6.94 14.4a5.506 5.504 0 0 1-4.357-6.372 5.506 5.504 0 0 1 6.3-4.46" opacity=".5" fill="none" stroke="url(#m)" stroke-width="1.584"/></g></svg>
